X: 15804
T: Goodnatured Man, The
R: hornpipe
M: 4/4
K: Fmajor
c2|:f2af c2fc|ABcA F2GA|B2dB G2 BG|EFGE C2 de|
f2af c2fc|ABcA F2GA|BdcB AGFE|G2 FE F2:|
AB|:cAcA f3c|d^cdB g^fgd|e3d cege|fgaf c2 Ac|
f2af c2fc|ABcA F2GA|BdcB AGFE|G2 FE F2:|

